X:1
T:Title
%%score ( 1 2 ) { 3 | 4 }
L:1/8
Q:1/4=115
M:9/8
K:D
V:1 treble nm="Grand Piano, Staff 1"
V:2 treble 
V:3 bass nm="Choir Pad, Segur, 87.87.87"
V:4 bass 
V:1
 [DA]2 [DF] [Fd]3- [Fd]2 [Fc] | ed[GB] [FA]3 [DF]3 | [DF][EG][FA] [CE]3- [CE]2 [CE] | %3
w: By~Joseph~Perry~Holbrook,~1862 * * * *|||
 [CA]2 [CG] [DF]6 | [DA]2 [DF] [Fd]3- [Fd]2 [Fc] | ed[GB] [FA]3 [DF]3 | %6
w: |||
 [Dd][Ec][FB] [EAe]3- [EAe]2 [CA] | [Ec]2 [DB] [CA]6 | [CE][=C^D][^CE] [EG]3 [CE]3 | %9
w: |||
 [EG][^DF][EG] [GB]3 [FA]3 | dc[Ge] [FA]3- [FA]2 [DF] | .G3 z3 z3 | z9 |] %13
w: ||||
V:2
 x9 | .G3 z3 z3 | x9 | x9 | x9 | .G3 z3 z3 | x9 | x9 | x9 | x9 | .F3 z3 z3 | C-[CE][CF] [A,D]6- | %12
 [A,D]3 z3 z3 |] %13
V:3
 F,2 F, A,3- A,2 A, | B,2 C D3 A,3 | A,2 A, A,3- A,2 A, | E,2 A, A,6 | F,2 F, A,3- A,2 A, | %5
 B,2 C D3 A,3 | B,^A,B, C3- C2 =A, | A,2 ^G, A,6 | A,2 A, E,3 A,3 | A,2 A, A,3 A,3 | %10
 A,2 B, D3- D2 A, | A,2 G, F,6- | F,3 z3 z3 |] %13
V:4
 D,2 D, D,3- D,2 D, | [G,,D,]2 [G,,D,] D,3 D,3 | D,2 D, A,,3- A,,2 A,, | A,,2 A,, D,6 | %4
 D,2 D, D,3- D,2 D, | G,,2 G,, D,3 D,3 | B,,C,D, E,3- E,2 E, | E,2 E, A,,6 | A,,2 A,, A,,3 A,,3 | %9
 A,,2 A,, D,3 D,3 | D,2 D, D,3- D,2 D, | A,,2 A,, D,6- | D,3 z3 z3 |] %13

